public/footer/telegram.svg

<svg width="26" height="26" viewBox="0 0 26 26" fill="none" xmlns="http://www.w3.org/2000/svg">
<path d="M21.5196 4.00168C21.2611 4.01372 21.0177 4.08901 20.8013 4.17333H20.7983C20.5789 4.26066 19.536 4.70033 17.9521 5.36586C16.3682 6.03441 14.3124 6.9017 12.2717 7.76298C8.1963 9.48251 4.18999 11.1749 4.18999 11.1749L4.23808 11.1569C4.23808 11.1569 3.96158 11.2472 3.67305 11.446C3.52578 11.5423 3.36349 11.6749 3.22223 11.8826C3.08097 12.0904 2.96676 12.4096 3.00884 12.7379C3.07797 13.295 3.43863 13.6293 3.6971 13.813C3.95857 13.9997 4.20803 14.087 4.20803 14.087H4.21404L7.97089 15.3548C8.13919 15.8969 9.11597 19.1131 9.3504 19.8539C9.48865 20.2966 9.6239 20.5737 9.79221 20.7845C9.87335 20.8929 9.96953 20.9832 10.0837 21.0555C10.1288 21.0826 10.1769 21.1037 10.225 21.1218C10.24 21.1308 10.2551 21.1338 10.2731 21.1368L10.234 21.1278C10.246 21.1308 10.2551 21.1398 10.2641 21.1428C10.2941 21.1519 10.3152 21.1549 10.3542 21.1609C10.9493 21.3416 11.4272 20.9712 11.4272 20.9712L11.4542 20.9501L13.6723 18.9264L17.3901 21.7843L17.4742 21.8204C18.2496 22.1607 19.0341 21.971 19.4488 21.6367C19.8666 21.2994 20.0289 20.8688 20.0289 20.8688L20.0559 20.7995L22.9292 6.05247C23.0103 5.68809 23.0313 5.34779 22.9412 5.01654C22.851 4.68528 22.6196 4.3751 22.3401 4.20947C22.0576 4.04083 21.7781 3.98963 21.5196 4.00168ZM21.4414 5.58269C21.4384 5.63087 21.4475 5.62485 21.4264 5.7182V5.72724L18.5802 20.3207C18.5682 20.3418 18.5472 20.387 18.4901 20.4321C18.43 20.4803 18.3819 20.5104 18.1324 20.4111L13.5851 16.9178L10.8381 19.4263L11.4152 15.7343C11.4152 15.7343 18.5382 9.08199 18.8447 8.7959C19.1513 8.50982 19.0491 8.44959 19.0491 8.44959C19.0701 8.10026 18.5862 8.3472 18.5862 8.3472L9.21816 14.1623L9.21515 14.1473L4.72497 12.6325V12.6295C4.72196 12.6295 4.71595 12.6265 4.71295 12.6265C4.71595 12.6265 4.73699 12.6174 4.73699 12.6174L4.76104 12.6054L4.78508 12.5964C4.78508 12.5964 8.79439 10.9039 12.8698 9.18438C14.9105 8.32311 16.9663 7.45581 18.5472 6.78727C20.128 6.12174 21.2972 5.63388 21.3633 5.60678C21.4264 5.58269 21.3964 5.58269 21.4414 5.58269Z" fill="#A6A6A6"/>
</svg>

<svg xmlns="http://www.w3.org/2000/svg" width="26" height="26" fill="none"><path fill="#A6A6A6" d="M21.52 4.002a2.3 2.3 0 0 0-.719.171h-.003c-.22.088-1.262.527-2.846 1.193l-5.68 2.397-8.082 3.412.048-.018s-.276.09-.565.289c-.147.096-.31.229-.45.437a1.3 1.3 0 0 0-.214.855c.069.557.43.891.688 1.075.262.187.511.274.511.274h.006l3.757 1.268c.168.542 1.145 3.758 1.38 4.499.138.443.273.72.441.93q.121.164.292.271a1 1 0 0 0 .19.082l-.04-.01c.012.004.021.013.03.016.03.009.051.012.09.018.595.18 1.073-.19 1.073-.19l.027-.02 2.218-2.025 3.718 2.858.084.036c.776.34 1.56.151 1.975-.183.418-.338.58-.768.58-.768l.027-.07 2.873-14.747c.081-.364.102-.704.012-1.035a1.4 1.4 0 0 0-.6-.808 1.44 1.44 0 0 0-.821-.207m-.079 1.58c-.003.049.007.043-.015.136v.01L18.58 20.32c-.012.02-.033.066-.09.111-.06.048-.108.078-.358-.02l-4.547-3.494-2.747 2.508.577-3.692 7.43-6.938c.306-.286.204-.346.204-.346.021-.35-.463-.103-.463-.103l-9.368 5.815-.003-.015-4.49-1.514v-.003l-.012-.004c.003 0 .024-.009.024-.009l.024-.012.024-.009 8.085-3.412c2.04-.86 4.096-1.728 5.677-2.397 1.581-.665 2.75-1.153 2.816-1.18.063-.024.033-.024.078-.024"/></svg>
